Origami/64x64/apps/devhelp.svg

<svg width="64" height="64" version="1" xmlns="http://www.w3.org/2000/svg">
 <path d="m9 55.20008v1.999967c0 1.549974 1.249579 2.799953 2.800753 2.799953h38.399361c1.549974 0 2.799953-1.249979 2.799953-2.799953v-1.999967c0 1.549974-1.249979 2.799953-2.799953 2.799953h-38.399361c-1.551174 0-2.800753-1.249979-2.800753-2.799953z" style="opacity:.2"/>
 <path d="m11.799953 3.0004829c-1.551174 0-2.799953 1.2487792-2.799953 2.7999533v50.399161c0 1.551974 1.248779 2.799953 2.799953 2.799953h5.569908l4.19993-27.999533-4.19993-27.999534z" style="fill:#4f4f4f"/>
 <path d="m38.42751 9.000383h17.142515c0.791986 0 1.429976 0.59459 1.429976 1.333378v13.333178c0 0.739987-0.63799 1.333978-1.427976 1.333978h-17.142515c-0.791987 0-1.429976-0.593991-1.429976-1.333978v-13.332378c0-0.738788 0.637989-1.3333781 1.427976-1.3333781z" style="fill:#4bae4f"/>
 <path d="m38.42751 23.00015h17.142515c0.791986 0 1.429976 0.59399 1.429976 1.333978v13.333178c0 0.737987-0.63799 1.331977-1.427976 1.331977h-17.142515c-0.791987 0-1.429976-0.59399-1.429976-1.333977v-13.333178c0-0.737988 0.637989-1.331978 1.427976-1.331978z" style="fill:#2095f2"/>
 <path d="m38.42751 36.999917h17.142515c0.791986 0 1.429976 0.59399 1.429976 1.333978v13.333178c0 0.737987-0.63799 1.331977-1.427976 1.331977h-17.142515c-0.791987 0-1.429976-0.59399-1.429976-1.333977v-13.333178c0-0.737988 0.637989-1.331978 1.427976-1.331978z" style="fill:#fec006"/>
 <g transform="matrix(1.9999667,0,0,1.9999667,1.0001332,-1.9994819)" style="opacity:.2">
  <path transform="matrix(.50000833 0 0 .50000833 -.50007493 .4997336)" d="M 38.429688,9 C 37.637701,9 37,9.5934435 37,10.332031 l 0,1 C 37,10.593444 37.637701,10 38.429688,10 l 17.138671,0 C 56.360346,10 57,10.593444 57,11.332031 l 0,-1 C 57,9.5934435 56.360346,9 55.568359,9 L 38.429688,9 Z"/>
  <path transform="matrix(.50000833 0 0 .50000833 -.50007493 .4997336)" d="M 38.429688,23 C 37.637701,23 37,23.594044 37,24.332031 l 0,1 C 37,24.594044 37.637701,24 38.429688,24 l 17.140624,0 C 56.361719,24 57,24.593384 57,25.332031 l 0,-1 C 57,23.593384 56.361719,23 55.570312,23 l -17.140624,0 z"/>
  <path transform="matrix(.50000833 0 0 .50000833 -.50007493 .4997336)" d="M 38.429688,37 C 37.637701,37 37,37.594044 37,38.332031 l 0,1 C 37,38.594044 37.637701,38 38.429688,38 l 17.140624,0 C 56.361719,38 57,38.593384 57,39.332031 l 0,-1 C 57,37.593384 56.361719,37 55.570312,37 l -17.140624,0 z"/>
 </g>
 <g transform="matrix(1.9999667 0 0 1.9999667 1.0001332 -.99945055)" style="fill:#ffffff;opacity:.2">
  <path transform="matrix(.50000833 0 0 .50000833 -.50007493 .4997336)" d="m38.429688 9c-0.791987 0-1.429688 0.5934435-1.429688 1.332031v1c0-0.738587 0.637701-1.332031 1.429688-1.332031h17.138671c0.791987 0 1.431641 0.593444 1.431641 1.332031v-1c0-0.7385875-0.639654-1.332031-1.431641-1.332031h-17.138671z"/>
  <path transform="matrix(.50000833 0 0 .50000833 -.50007493 .4997336)" d="m38.429688 23c-0.791987 0-1.429688 0.594044-1.429688 1.332031v1c0-0.737987 0.637701-1.332031 1.429688-1.332031h17.140624c0.791407 0 1.429688 0.593384 1.429688 1.332031v-1c0-0.738647-0.638281-1.332031-1.429688-1.332031h-17.140624z"/>
  <path transform="matrix(.50000833 0 0 .50000833 -.50007493 .4997336)" d="m38.429688 37c-0.791987 0-1.429688 0.594044-1.429688 1.332031v1c0-0.737987 0.637701-1.332031 1.429688-1.332031h17.140624c0.791407 0 1.429688 0.593384 1.429688 1.332031v-1c0-0.738647-0.638281-1.332031-1.429688-1.332031h-17.140624z"/>
 </g>
 <path d="m16.999867 3.0004829v55.999067h33.199447c1.551974 0 2.799953-1.247979 2.799953-2.799953v-50.399161c0-1.5511741-1.247979-2.7999533-2.799953-2.7999533h-18.62969z" style="fill:#f34235"/>
 <path d="m25 20.003906v23.996094h7.111328c12.443793 0 12.888672-7.554121 12.888672-11.998047s-0.446879-12.217443-12.888672-11.998047h-7.111328zm6 4.996094h1.111328c5.333311 0 6.888672 1.399999 6.888672 7 0 5.6-1.555501 7-6.888672 7h-1.111328v-14z" style="opacity:.2"/>
 <path d="m25 19.003906v23.996094h7.111328c12.443793 0 12.888672-7.554121 12.888672-11.998047s-0.446879-12.217443-12.888672-11.998047h-7.111328zm6 4.996094h1.111328c5.333311 0 6.888672 1.399999 6.888672 7 0 5.6-1.555501 7-6.888672 7h-1.111328v-14z" style="fill:#f9f9f9"/>
 <path d="M 11.800781 3 C 10.249607 3 9 4.249607 9 5.8007812 L 9 6.8007812 C 9 5.249607 10.249607 4 11.800781 4 L 50.199219 4 C 51.749193 4 53 5.249607 53 6.8007812 L 53 5.8007812 C 53 4.249607 51.749193 3 50.199219 3 L 11.800781 3 z" style="fill:#ffffff;opacity:.2"/>
</svg>

<svg xmlns="http://www.w3.org/2000/svg" width="64" height="64" version="1">
 <path style="opacity:0.2" d="m 9,55.20008 0,1.999967 C 9,58.750021 10.249579,60 11.800753,60 l 38.399361,0 c 1.549974,0 2.799953,-1.249979 2.799953,-2.799953 l 0,-1.999967 c 0,1.549974 -1.249979,2.799953 -2.799953,2.799953 l -38.399361,0 C 10.249579,58.000033 9,56.750054 9,55.20008 Z"/>
 <path style="fill:#4f4f4f" d="M 11.799953,3.0004829 C 10.248779,3.0004829 9,4.2492621 9,5.8004362 L 9,56.199597 c 0,1.551974 1.248779,2.799953 2.799953,2.799953 l 5.569908,0 4.19993,-27.999533 -4.19993,-27.9995341 z"/>
 <path style="fill:#4bae4f" d="m 38.42751,9.000383 17.142515,0 c 0.791986,0 1.429976,0.59459 1.429976,1.333378 l 0,13.333178 c 0,0.739987 -0.63799,1.333978 -1.427976,1.333978 l -17.142515,0 c -0.791987,0 -1.429976,-0.593991 -1.429976,-1.333978 l 0,-13.332378 c 0,-0.738788 0.637989,-1.3333781 1.427976,-1.3333781 z"/>
 <path style="fill:#2095f2" d="m 38.42751,23.00015 17.142515,0 c 0.791986,0 1.429976,0.59399 1.429976,1.333978 l 0,13.333178 c 0,0.737987 -0.63799,1.331977 -1.427976,1.331977 l -17.142515,0 c -0.791987,0 -1.429976,-0.59399 -1.429976,-1.333977 l 0,-13.333178 c 0,-0.737988 0.637989,-1.331978 1.427976,-1.331978 z"/>
 <path style="fill:#fec006" d="m 38.42751,36.999917 17.142515,0 c 0.791986,0 1.429976,0.59399 1.429976,1.333978 l 0,13.333178 c 0,0.737987 -0.63799,1.331977 -1.427976,1.331977 l -17.142515,0 c -0.791987,0 -1.429976,-0.59399 -1.429976,-1.333977 l 0,-13.333178 c 0,-0.737988 0.637989,-1.331978 1.427976,-1.331978 z"/>
 <g style="opacity:0.2" transform="matrix(1.9999667,0,0,1.9999667,1.0001332,-1.9994819)">
  <path d="M 38.429688,9 C 37.637701,9 37,9.5934435 37,10.332031 l 0,1 C 37,10.593444 37.637701,10 38.429688,10 l 17.138671,0 C 56.360346,10 57,10.593444 57,11.332031 l 0,-1 C 57,9.5934435 56.360346,9 55.568359,9 L 38.429688,9 Z" transform="matrix(0.50000833,0,0,0.50000833,-0.50007493,0.4997336)"/>
  <path d="M 38.429688,23 C 37.637701,23 37,23.594044 37,24.332031 l 0,1 C 37,24.594044 37.637701,24 38.429688,24 l 17.140624,0 C 56.361719,24 57,24.593384 57,25.332031 l 0,-1 C 57,23.593384 56.361719,23 55.570312,23 l -17.140624,0 z" transform="matrix(0.50000833,0,0,0.50000833,-0.50007493,0.4997336)"/>
  <path d="M 38.429688,37 C 37.637701,37 37,37.594044 37,38.332031 l 0,1 C 37,38.594044 37.637701,38 38.429688,38 l 17.140624,0 C 56.361719,38 57,38.593384 57,39.332031 l 0,-1 C 57,37.593384 56.361719,37 55.570312,37 l -17.140624,0 z" transform="matrix(0.50000833,0,0,0.50000833,-0.50007493,0.4997336)"/>
 </g>
 <g style="opacity:0.2;fill:#ffffff" transform="matrix(1.9999667,0,0,1.9999667,1.0001332,-0.99945055)">
  <path d="M 38.429688 9 C 37.637701 9 37 9.5934435 37 10.332031 L 37 11.332031 C 37 10.593444 37.637701 10 38.429688 10 L 55.568359 10 C 56.360346 10 57 10.593444 57 11.332031 L 57 10.332031 C 57 9.5934435 56.360346 9 55.568359 9 L 38.429688 9 z" transform="matrix(0.50000833,0,0,0.50000833,-0.50007493,0.4997336)"/>
  <path d="M 38.429688 23 C 37.637701 23 37 23.594044 37 24.332031 L 37 25.332031 C 37 24.594044 37.637701 24 38.429688 24 L 55.570312 24 C 56.361719 24 57 24.593384 57 25.332031 L 57 24.332031 C 57 23.593384 56.361719 23 55.570312 23 L 38.429688 23 z" transform="matrix(0.50000833,0,0,0.50000833,-0.50007493,0.4997336)"/>
  <path d="M 38.429688 37 C 37.637701 37 37 37.594044 37 38.332031 L 37 39.332031 C 37 38.594044 37.637701 38 38.429688 38 L 55.570312 38 C 56.361719 38 57 38.593384 57 39.332031 L 57 38.332031 C 57 37.593384 56.361719 37 55.570312 37 L 38.429688 37 z" transform="matrix(0.50000833,0,0,0.50000833,-0.50007493,0.4997336)"/>
 </g>
 <path style="fill:#f34235" d="m 16.999867,3.0004829 0,55.9990671 33.199447,0 c 1.551974,0 2.799953,-1.247979 2.799953,-2.799953 l 0,-50.3991608 c 0,-1.5511741 -1.247979,-2.7999533 -2.799953,-2.7999533 l -18.62969,0 z"/>
 <path style="opacity:0.2" d="M 25,20.003906 25,44 32.111328,44 C 44.555121,44 45,36.445879 45,32.001953 45,27.558027 44.553121,19.78451 32.111328,20.003906 l -7.111328,0 z M 31,25 32.111328,25 C 37.444639,25 39,26.399999 39,32 c 0,5.6 -1.555501,7 -6.888672,7 L 31,39 31,25 Z"/>
 <path style="fill:#f9f9f9" d="M 25 19.003906 L 25 43 L 32.111328 43 C 44.555121 43 45 35.445879 45 31.001953 C 45 26.558027 44.553121 18.78451 32.111328 19.003906 L 25 19.003906 z M 31 24 L 32.111328 24 C 37.444639 24 39 25.399999 39 31 C 39 36.6 37.444499 38 32.111328 38 L 31 38 L 31 24 z"/>
 <path style="opacity:0.2;fill:#ffffff" d="M 11.800781 3 C 10.249607 3 9 4.249607 9 5.8007812 L 9 6.8007812 C 9 5.249607 10.249607 4 11.800781 4 L 50.199219 4 C 51.749193 4 53 5.249607 53 6.8007812 L 53 5.8007812 C 53 4.249607 51.749193 3 50.199219 3 L 11.800781 3 z"/>
</svg>
